X: 41
T: Washington's March
B: canberra pickers and fiddlers
B: tunes
M:C|
L:1/8
R: march
Q: 1/4=160
K:D
V:1 
"D"DEFG AB=cA| "G" GBAG "D"FD-D2| DEFG AGFG| "A"Ad-d2 "D"d4|
"D"DEFG AB=cA| "G" GBAG "D"FD-D2| DEFG Adfd |"A"eddc "D"d4:|
|:"D"f2a2 f2a2|"A" edcd eg-g2|"D"f2a2f2a2|"A"ed c2 "D"d4|
"D"f2a2 f2a2|"A" edcd eg-g2|"D"a2g2 fgf2|"A"edc2 "D"d4:|
% abcbook-tune_id 63da5934448ad719bb91a6c9
% abcbook-tune_composer_id 
% abcbook-link-0 https://www.youtube.com/watch?v=irYc6bG78lw
% abcbook-boost 10
% abcbook-difficulty 0
% abcbook-tags canberra pickers and fiddlers,old time tunes,© free
% abcbook-tablature 
% abcbook-transpose 
% abcbook-tuning DDAD
% abcbook-lastupdated 1722821700620
% abcbook-src-url https://tunebook.net/scrape/tunes.abc
% abcbook-soundfonts 
% abcbook-repeats 1
%%gchordfont "itim-music,Itim" 20

